img/fa-solid_users.svg

<svg width="60" height="48" viewBox="0 0 60 48" fill="none" xmlns="http://www.w3.org/2000/svg">
<g id="fa-solid:users">
<path id="Vector" d="M9 21C12.3094 21 15 18.3094 15 15C15 11.6906 12.3094 9 9 9C5.69063 9 3 11.6906 3 15C3 18.3094 5.69063 21 9 21ZM51 21C54.3094 21 57 18.3094 57 15C57 11.6906 54.3094 9 51 9C47.6906 9 45 11.6906 45 15C45 18.3094 47.6906 21 51 21ZM54 24H48C46.35 24 44.8594 24.6656 43.7719 25.7438C47.55 27.8156 50.2313 31.5562 50.8125 36H57C58.6594 36 60 34.6594 60 33V30C60 26.6906 57.3094 24 54 24ZM30 24C35.8031 24 40.5 19.3031 40.5 13.5C40.5 7.69687 35.8031 3 30 3C24.1969 3 19.5 7.69687 19.5 13.5C19.5 19.3031 24.1969 24 30 24ZM37.2 27H36.4219C34.4719 27.9375 32.3063 28.5 30 28.5C27.6938 28.5 25.5375 27.9375 23.5781 27H22.8C16.8375 27 12 31.8375 12 37.8V40.5C12 42.9844 14.0156 45 16.5 45H43.5C45.9844 45 48 42.9844 48 40.5V37.8C48 31.8375 43.1625 27 37.2 27ZM16.2281 25.7438C15.1406 24.6656 13.65 24 12 24H6C2.69063 24 0 26.6906 0 30V33C0 34.6594 1.34062 36 3 36H9.17813C9.76875 31.5562 12.45 27.8156 16.2281 25.7438Z" fill="white"/>
</g>
</svg>

<svg xmlns="http://www.w3.org/2000/svg" width="60" height="48" fill="none"><path fill="#fff" d="M9 21c3.31 0 6-2.69 6-6s-2.69-6-6-6-6 2.69-6 6 2.69 6 6 6m42 0c3.31 0 6-2.69 6-6s-2.69-6-6-6-6 2.69-6 6 2.69 6 6 6m3 3h-6c-1.65 0-3.14.666-4.228 1.744 3.778 2.072 6.46 5.812 7.04 10.256H57c1.66 0 3-1.34 3-3v-3c0-3.31-2.69-6-6-6m-24 0c5.803 0 10.5-4.697 10.5-10.5S35.803 3 30 3 19.5 7.697 19.5 13.5 24.197 24 30 24m7.2 3h-.778c-1.95.938-4.116 1.5-6.422 1.5s-4.462-.562-6.422-1.5H22.8C16.837 27 12 31.837 12 37.8v2.7c0 2.484 2.016 4.5 4.5 4.5h27c2.484 0 4.5-2.016 4.5-4.5v-2.7C48 31.838 43.163 27 37.2 27m-20.972-1.256A5.98 5.98 0 0 0 12 24H6c-3.31 0-6 2.69-6 6v3c0 1.66 1.34 3 3 3h6.178c.59-4.444 3.272-8.184 7.05-10.256"/></svg>
